X:48
T: Die Brombeerpflueckerin
N: Q0147O
O: Osteuropa, Ungarn, Kom. Tolnau, Nemetker
R: Ballade, Verfuehrung, Schwangerschaft
M: 4/4
L: 1/8
K: G
D2 | G3A_B2c2 | _B2A2G2
(3ddd | a2d=f_edc2 | d4z2
(3ddd | a2d=f_edc2 | d4z2
(3BBc | d2d2d2d2 | c2_e2d2
(3ccc | _B2B2A2d2 | G2d4
(3ccc | _B2B2A2d2 | G4z2

@@@ Tune index: 1651
